X:18615
T:Westland
R:jig
S:Martin O'Donahoe
H:
N:
D:Martin O'Donohoe: Free Spirit
Z:Adrian Scahill
M:6/8
L:1/8
K:D
d2f B2e|cBA def|e2e efd|efd cBA|\
def B2e|cBA def|g2g efg|fdd d3:||\
faa gfe|fed A2G|FAd D2d|Bed cBA|\
faa gfe|fed A2G|FAd Ddd|cBc d3:||


